public/img/binit-strategy/icons/icon-01.svg

<svg fill="none" height="34" viewBox="0 0 40 34" width="40" xmlns="http://www.w3.org/2000/svg" xmlns:xlink="http://www.w3.org/1999/xlink"><clipPath id="a"><path d="m0 0h40v34h-40z"/></clipPath><g clip-path="url(#a)"><path d="m34.0777 8.57324h-28.15526c-.8673 0-1.57039.71838-1.57039 1.60456v20.1272c0 .8861.70309 1.6045 1.57039 1.6045h28.15526c.8673 0 1.5704-.7184 1.5704-1.6045v-20.1272c0-.88618-.7031-1.60456-1.5704-1.60456z" stroke="#fff" stroke-miterlimit="10" stroke-width="2"/><g fill="#fff"><path d="m1.63381 18.277h2.53286v4.248h-2.53286c-.2113 0-.38381-.2493-.38381-.559v-3.132c0-.3077.17118-.559.38381-.559z"/><path d="m38.3662 22.5231h-2.5329v-4.2481h2.5329c.2113 0 .3838.2493.3838.559v3.132c0 .3078-.1712.559-.3838.559z"/><path d="m15.8395 16.3941h-3.47c-.2436 0-.441.2017-.441.4506v7.1093c0 .2489.1974.4506.441.4506h3.47c.2435 0 .441-.2017.441-.4506v-7.1093c0-.2489-.1975-.4506-.441-.4506z"/><path d="m27.6305 16.3941h-3.47c-.2436 0-.441.2017-.441.4506v7.1093c0 .2489.1974.4506.441.4506h3.47c.2435 0 .441-.2017.441-.4506v-7.1093c0-.2489-.1975-.4506-.441-.4506z"/></g><path d="m20 8.57324v-7.757688h-9.5061" stroke="#fff" stroke-miterlimit="10" stroke-width="2"/></g></svg>

<svg width="40" height="34" viewBox="0 0 40 34" fill="none" xmlns="http://www.w3.org/2000/svg">
<g clip-path="url(#clip0_824_25205)">
<path d="M34.0777 8.57324H5.92244C5.05514 8.57324 4.35205 9.29162 4.35205 10.1778V30.305C4.35205 31.1911 5.05514 31.9095 5.92244 31.9095H34.0777C34.945 31.9095 35.6481 31.1911 35.6481 30.305V10.1778C35.6481 9.29162 34.945 8.57324 34.0777 8.57324Z" stroke="white" stroke-width="2" stroke-miterlimit="10"/>
<path d="M1.63381 18.277H4.16667V22.525H1.63381C1.42251 22.525 1.25 22.2757 1.25 21.966V18.834C1.25 18.5263 1.42118 18.275 1.63381 18.275V18.277Z" fill="white"/>
<path d="M38.3662 22.5231L35.8333 22.5231L35.8333 18.275L38.3662 18.275C38.5775 18.275 38.75 18.5243 38.75 18.834L38.75 21.966C38.75 22.2738 38.5788 22.525 38.3662 22.525L38.3662 22.5231Z" fill="white"/>
<path d="M15.8395 16.3941H12.3695C12.1259 16.3941 11.9285 16.5958 11.9285 16.8447V23.954C11.9285 24.2029 12.1259 24.4046 12.3695 24.4046H15.8395C16.083 24.4046 16.2805 24.2029 16.2805 23.954V16.8447C16.2805 16.5958 16.083 16.3941 15.8395 16.3941Z" fill="white"/>
<path d="M27.6305 16.3941H24.1605C23.9169 16.3941 23.7195 16.5958 23.7195 16.8447V23.954C23.7195 24.2029 23.9169 24.4046 24.1605 24.4046H27.6305C27.874 24.4046 28.0715 24.2029 28.0715 23.954V16.8447C28.0715 16.5958 27.874 16.3941 27.6305 16.3941Z" fill="white"/>
<path d="M20 8.57324V0.815552H10.4939" stroke="white" stroke-width="2" stroke-miterlimit="10"/>
</g>
<defs>
<clipPath id="clip0_824_25205">
<rect width="40" height="34" fill="white"/>
</clipPath>
</defs>
</svg>
